src/images/chevron-right.svg

<svg xmlns="http://www.w3.org/2000/svg" width="12" height="18" fill="none" viewBox="0 0 12 18"><path fill="#1890FF" d="M10.0362 9.59648L3.20381 16.4289C2.87429 16.7584 2.34006 16.7584 2.01057 16.4289L1.21368 15.632C0.884727 15.303 0.884094 14.7699 1.21228 14.4401L6.62708 8.99984L1.21228 3.55959C0.884094 3.22986 0.884727 2.69671 1.21368 2.36776L2.01057 1.57087C2.34009 1.24135 2.87433 1.24135 3.20381 1.57087L10.0362 8.40324C10.3657 8.73273 10.3657 9.26696 10.0362 9.59648Z"/></svg>

<svg fill="none" viewBox="0 0 12 18"><path fill="#1890FF" d="M10.036 9.596L3.204 16.43a.844.844 0 01-1.193 0l-.797-.797a.844.844 0 01-.002-1.192L6.627 9 1.212 3.56a.844.844 0 01.002-1.192l.797-.797a.844.844 0 011.193 0l6.832 6.832c.33.33.33.864 0 1.193z"/></svg>
